packages/foundations/assets/icons/functional/images/maps/map_12.svg

<svg width="12" height="12" viewBox="0 0 12 12" fill="none" xmlns="http://www.w3.org/2000/svg">
<g clip-path="url(#clip0_232_311)">
<path fill-rule="evenodd" clip-rule="evenodd" d="M4.55764 1.15386L7.80767 2.23078L9.99998 1.13466C10.0926 1.08832 10.1923 1.07693 10.3461 1.07693C10.6154 1.07693 10.9231 1.2885 10.9231 1.5962V9.07693C10.9231 9.2885 10.8461 9.48075 10.6538 9.57693L8.13463 10.8654C8.0577 10.9039 7.96152 10.9231 7.86534 10.9231C7.78841 10.9231 7.67309 10.8846 7.55764 10.8654L4.19229 9.73078L1.96152 10.8654C1.8846 10.9039 1.78841 10.9231 1.71149 10.9231C1.3654 10.9231 1.0769 10.7115 1.0769 10.3077V2.90389C1.0769 2.71152 1.15383 2.48075 1.34614 2.38463L3.80767 1.15386C3.93075 1.09232 4.02921 1.08001 4.11289 1.07755L4.17303 1.07693C4.26921 1.07693 4.34398 1.08303 4.55764 1.15386ZM4.76921 2.51927V8.6346L7.23075 9.46155V3.34617L4.76921 2.51927ZM9.69229 2.67312L8.46152 3.2885V9.3077L9.69229 8.69232V2.67312ZM3.53844 2.67312L2.30767 3.2885V9.3077L3.53844 8.69232V2.67312Z" fill="#1A1C1F"/>
</g>
<defs>
<clipPath id="clip0_232_311">
<rect width="12" height="12" fill="white"/>
</clipPath>
</defs>
</svg>

<svg xmlns="http://www.w3.org/2000/svg" width="12" height="12" fill="none"><g clip-path="url(#a)"><path fill="#1A1C1F" fill-rule="evenodd" d="m4.558 1.154 3.25 1.077L10 1.135c.093-.047.192-.058.346-.058.27 0 .577.212.577.52v7.48c0 .212-.077.404-.27.5l-2.518 1.288a.6.6 0 0 1-.27.058c-.077 0-.192-.038-.307-.058L4.192 9.731l-2.23 1.134a.6.6 0 0 1-.25.058c-.347 0-.635-.212-.635-.615V2.904c0-.192.077-.423.27-.52l2.46-1.23a.7.7 0 0 1 .306-.076l.06-.001c.096 0 .171.006.385.077m.211 1.365v6.116l2.462.827V3.346zm4.923.154-1.23.615v6.02l1.23-.616zm-6.154 0-1.23.615v6.02l1.23-.616z" clip-rule="evenodd"/></g><defs><clipPath id="a"><path fill="#fff" d="M0 0h12v12H0z"/></clipPath></defs></svg>
